X:1
T:Title
%%score { ( 1 4 ) | ( 2 3 ) }
L:1/8
M:6/4
K:Db
V:1 treble nm="Grand Piano"
V:4 treble 
V:2 bass 
V:3 bass 
V:1
 z6 z4 [FA]2 | [FA]2 [Af]2 [Ge]2 [Fd]2 [Ac]2 .[B,GB]2 | [DFA]2 [A,DF]3 [A,EG] [FA]4 [FA]2 | %3
 [GA]2 [Ge]2 [Gc]2 [CEG]2 [Ec]2 [CGB]2 | [GB]2 [FA]3 [EG] F4 F2 | F2 _F2 =F2 [FA]2 [_F=G]2 [=FA]2 | %6
 _c2 c2 c2 B4 B2 | [=GB]2 [_G=A]2 [=GB]2 [Ge]2 [Gd]2 [GB]2 |[M:5/4] A2 A3 A A4 |[M:1/4] A2 | %10
[M:6/4] .[DFA]6 [DFA]2 [A,DF]2 [A,EG]2 | A12 | A2 e2 c2 G2 E2 B2 | A12 | %14
 [FA]2 [_F=G]2 [=FA]2 [Af]2 [Ae]2 [Ad]2 | d2 c2 d2 .[=Ge]4 [DGB]2 | %16
 [CA]2 [DFA]2 [EGA]2 [Gc]2 [Fd]2 [Ge]2 |[M:5/4] d2- [_Fd-]2 [Gd-]2 [=Fd]4 |] %18
V:2
 z6 z4 [D,D]2 | [D,D]2 [D,D]2 [D,D]2 [D,A,]2 .[D,A,]3 C | D,2 D,3 D, [D,D]4 [D,D]2 | %3
 [E,C]2 [E,C]2 [E,A,]2 A,2 A,2 A,,2 | [D,D]2 [D,D]3 [D,A,] [D,A,D]4 [D,A,D]2 | %5
 [D,A,D]2 [D,=G,D]2 [D,A,D]2 [D,D]2 [D,D]2 [D,D]2 | %6
 [F,A,D]2 [F,A,D]2[K:treble] [A,DF]2 [G,DG]4[K:bass] [G,DG]2 | %7
 [E,E]2 [E,E]2 [E,E]2 [E,B,]2 [E,B,]2 [E,D]2 |[M:5/4][K:treble] [A,CE]2 [A,CE]3 [A,DF] [A,EG]4 | %9
[M:1/4] z2 |[M:6/4][K:bass] z2[K:treble] d2 B2[K:bass] D,2 D,2 D,2 | D,2 F,2 [A,C]2 .[D,D]6 | %12
 [A,CG]6 [A,CE]2 [A,C]2 [A,CG]2 | D,2 F,2 [A,C]2 [D,D]4 [D,D]2 | %14
 [D,D]2 [D,D]2 [D,D]2 [D,D]2 [E,C]2 [F,_C]2 | %15
 [G,B,G]2 [G,=A,G]2 [G,B,G]2 z2[K:treble] d2[K:bass] E,2 | A,2 A,2 A,2 [A,,A,]2 [A,,A,]2 [A,,A,]2 | %17
[M:5/4] A,2 z2 z2 z4 |] %18
V:3
 x12 | z6 z4 D,2 | x12 | x12 | x12 | x12 | x4[K:treble] x6[K:bass] x2 | x12 | %8
[M:5/4][K:treble] x10 |[M:1/4] x2 |[M:6/4][K:bass] D,6[K:treble][K:bass] z6 | x12 | x12 | x12 | %14
 x12 | z6 .[E,B,]6[K:treble][K:bass] | x12 |[M:5/4] D,2- [D,-=G,]2 [D,-B,]2 [D,A,]4 |] %18
V:4
 x12 | x12 | x12 | x12 | x12 | x12 | x12 | x12 |[M:5/4] x10 |[M:1/4] x2 |[M:6/4] x12 | %11
 [DF]2 D2 G2 F4 A2 | x12 | [DF]2 D2 E2 F4 [FA]2 | x12 | x12 | x12 |[M:5/4] F2 z2 z2 z4 |] %18

